img/icones/telefone.svg

<svg width="20" height="20" viewBox="0 0 20 20" fill="none" xmlns="http://www.w3.org/2000/svg">
<path d="M16.0245 12.717L13.9075 12.475C13.6587 12.4458 13.4066 12.4734 13.17 12.5557C12.9334 12.638 12.7185 12.7728 12.5415 12.95L11.0075 14.483C8.64221 13.2799 6.71963 11.3573 5.51651 8.992L7.05751 7.45C7.41651 7.092 7.59151 6.592 7.53251 6.083L7.29151 3.983C7.24415 3.57641 7.04893 3.20143 6.74301 2.92944C6.4371 2.65746 6.04185 2.50746 5.63251 2.508H4.19151C3.24951 2.508 2.46651 3.292 2.52451 4.233C2.96651 11.35 8.65751 17.033 15.7665 17.475C16.7075 17.533 17.4915 16.75 17.4915 15.808V14.367C17.4936 13.9594 17.3449 13.5655 17.0741 13.2609C16.8033 12.9564 16.4295 12.7626 16.0245 12.717Z" fill="url(#paint0_linear_44_379)"/>
<defs>
<linearGradient id="paint0_linear_44_379" x1="10.041" y1="2.508" x2="10.041" y2="17.478" gradientUnits="userSpaceOnUse">
<stop stop-color="#FFBF00"/>
<stop offset="1" stop-color="#F2A60C"/>
</linearGradient>
</defs>
</svg>

<svg width="20" height="20" fill="none" xmlns="http://www.w3.org/2000/svg">
  <path d="m16.024 12.717-2.117-.242a1.657 1.657 0 0 0-1.366.475l-1.534 1.533a12.538 12.538 0 0 1-5.49-5.491l1.54-1.542c.36-.358.535-.858.476-1.367l-.241-2.1a1.668 1.668 0 0 0-1.66-1.475h-1.44c-.942 0-1.725.784-1.667 1.725.442 7.117 6.133 12.8 13.242 13.242.94.058 1.724-.725 1.724-1.667v-1.441a1.652 1.652 0 0 0-1.466-1.65Z" fill="url(#a)"/>
  <defs>
    <linearGradient id="a" x1="10.007" y1="2.508" x2="10.007" y2="17.478" gradientUnits="userSpaceOnUse">
      <stop stop-color="#FFBF00"/>
      <stop offset="1" stop-color="#F2A50C"/>
    </linearGradient>
  </defs>
</svg>
